X: 2
T: Mrs. Gordons Reel
M: 4/4
L: 1/8
R: reel
K: D
|: F/G/A |\
d2 Ad BdAd | B/c/d ef g2 ec | 
d2 Ad B/c/d A2 | BAGE ED :|
|: ce |\
dDFA fFAc | dD F/G/A d2 cA |
[1 eE^GB =gE^GE | e2 E/^G/B e2 :|
[2 GABc d2 e/f/g | fa e/d/c d2 |]
